svgs/sharp-solid/file-zipper.svg

<svg xmlns="http://www.w3.org/2000/svg" viewBox="0 0 384 512"><!--! Font Awesome Pro 6.6.0 by @fontawesome - https://fontawesome.com License - https://fontawesome.com/license (Commercial License) Copyright 2024 Fonticons, Inc. --><path d="M224 0L0 0 0 512l384 0 0-352-160 0L224 0zm32 0l0 128 128 0L256 0zM96 32l16 0 32 0 16 0 0 32-16 0-32 0L96 64l0-32zm0 64l16 0 32 0 16 0 0 32-16 0-32 0-16 0 0-32zm0 64l16 0 32 0 16 0 0 32-16 0-32 0-16 0 0-32zM64 416l0-72L96 224l64 0 32 120 0 72L64 416zm48-80l-16 0 0 32 16 0 32 0 16 0 0-32-16 0-32 0z"/></svg>

<svg xmlns="http://www.w3.org/2000/svg" viewBox="0 0 384 512"><!--! Font Awesome Pro 6.4.2 by @fontawesome - https://fontawesome.com License - https://fontawesome.com/license (Commercial License) Copyright 2023 Fonticons, Inc. --><path d="M224 0H0V512H384V160H224V0zm32 0V128H384L256 0zM96 32h16 32 16V64H144 112 96V32zm0 64h16 32 16v32H144 112 96V96zm0 64h16 32 16v32H144 112 96V160zM64 416V344L96 224h64l32 120v72H64zm48-80H96v32h16 32 16V336H144 112z"/></svg>
